src/assets/image/linkedin_footer.svg

<svg xmlns:xlink="http://www.w3.org/1999/xlink" xmlns="http://www.w3.org/2000/svg" width="30" height="30" viewBox="0 0 30 30" fill="none"><path d="M14.9821 0C17.0609 0 19.0084 0.394265 20.8244 1.1828C22.6404 1.97133 24.2294 3.04062 25.5914 4.39068C26.9534 5.74074 28.0287 7.32378 28.8172 9.13979C29.6057 10.9558 30 12.9032 30 14.9821C30 17.0609 29.6057 19.0084 28.8172 20.8244C28.0287 22.6404 26.9534 24.2294 25.5914 25.5914C24.2294 26.9534 22.6404 28.0287 20.8244 28.8172C19.0084 29.6057 17.0609 30 14.9821 30C12.9032 30 10.9558 29.6057 9.13979 28.8172C7.32378 28.0287 5.74074 26.9534 4.39068 25.5914C3.04062 24.2294 1.97133 22.6404 1.1828 20.8244C0.394265 19.0084 0 17.0609 0 14.9821C0 12.9032 0.394265 10.9558 1.1828 9.13979C1.97133 7.32378 3.04062 5.74074 4.39068 4.39068C5.74074 3.04062 7.32378 1.97133 9.13979 1.1828C10.9558 0.394265 12.9032 0 14.9821 0ZM10.3226 11.2545H6.55914V23.4409H10.3226V11.2545ZM8.42294 10.2867C8.94863 10.2867 9.39666 10.1075 9.76703 9.7491C10.1374 9.39068 10.3226 8.94863 10.3226 8.42294C10.3226 7.89725 10.1374 7.4552 9.76703 7.09677C9.39666 6.73835 8.94863 6.55914 8.42294 6.55914C7.89725 6.55914 7.4552 6.73835 7.09677 7.09677C6.73835 7.4552 6.55914 7.89725 6.55914 8.42294C6.55914 8.94863 6.73835 9.39068 7.09677 9.7491C7.4552 10.1075 7.89725 10.2867 8.42294 10.2867ZM23.4409 16.3799C23.4409 15.5197 23.2019 14.6774 22.724 13.853C22.2461 13.0287 21.6249 12.4014 20.8602 11.9713C20.1673 11.589 19.3608 11.3859 18.4409 11.362C17.5209 11.3381 16.6786 11.4934 15.914 11.828V11.2545H12.1864V23.4409H15.914V15.9857L17.491 15.233C17.6822 15.1374 17.9391 15.0896 18.2617 15.0896C18.5842 15.0896 18.8411 15.1493 19.0323 15.2688C19.1756 15.3405 19.319 15.4958 19.4624 15.7348C19.6057 15.9737 19.6774 16.1888 19.6774 16.3799V23.4409H23.4409V16.3799Z" fill="#252525"/></svg>

<svg xmlns="http://www.w3.org/2000/svg" width="30" height="30" fill="none"><path fill="#252525" d="M14.982 0c2.079 0 4.026.394 5.842 1.183a15.433 15.433 0 0 1 4.767 3.208 15.06 15.06 0 0 1 3.226 4.749C29.606 10.956 30 12.903 30 14.982c0 2.079-.394 4.026-1.183 5.842a15.276 15.276 0 0 1-3.226 4.767 15.276 15.276 0 0 1-4.767 3.226C19.008 29.606 17.061 30 14.982 30c-2.079 0-4.026-.394-5.842-1.183a15.06 15.06 0 0 1-4.75-3.226 15.433 15.433 0 0 1-3.207-4.767C.394 19.008 0 17.061 0 14.982c0-2.079.394-4.026 1.183-5.842A15.212 15.212 0 0 1 4.39 4.39 15.212 15.212 0 0 1 9.14 1.184C10.956.394 12.903 0 14.982 0Zm-4.66 11.255H6.56V23.44h3.764V11.255Zm-1.9-.968c.527 0 .975-.18 1.345-.538.37-.358.556-.8.556-1.326s-.186-.968-.556-1.326a1.862 1.862 0 0 0-1.344-.538c-.526 0-.968.18-1.326.538-.359.358-.538.8-.538 1.326s.18.968.538 1.326c.358.358.8.538 1.326.538Zm15.019 6.093c0-.86-.24-1.703-.717-2.527-.478-.824-1.1-1.452-1.864-1.882-.693-.382-1.5-.585-2.42-.609-.92-.024-1.761.131-2.526.466v-.573h-3.728V23.44h3.728v-7.455l1.577-.753c.191-.096.448-.143.77-.143.323 0 .58.06.771.179.144.072.287.227.43.466.144.239.215.454.215.645v7.06h3.764v-7.06Z"/></svg>
